X:1110
T:For the (not legible - Mums Nuns Vines Minn )
A:Wyresdale, Lancashire
B:E and J Winder, 1835-41
L:1/8
M:2/4
O:England
Z:Richard Robinson 
%%TUNEURL: http://www.leeds.ac.uk/music/Info/RRTuneBk/gettune/00001152.html
%%ID:00001152
K:G
GA | B2 BB | Bd cB | BA AA | A2 Bc | dg dB | ce dB | BG GG | G2 ||
BG | A2 DD | D2 BG | A2 DD | D2 Bc | dg dB | ce dc | BG GG | G2 |]
%%newpage
%page 93
